<?xml version="1.0" encoding="UTF-8"?>
<map version="1.10" tiledversion="1.12.1" orientation="orthogonal" renderorder="right-down" width="40" height="14" tilewidth="16" tileheight="16" infinite="0" nextlayerid="5" nextobjectid="9">
 <editorsettings>
  <export target="stage_1_fortress.json" format="json"/>
 </editorsettings>
 <tileset firstgid="1" source="../Tilesets/Tilesets.tsx"/>
 <tileset firstgid="871" source="../Tilesets/bg-1-fortress.tsx"/>
 <layer id="1" name="Background" width="40" height="14">
  <data encoding="csv">
339,339,339,339,339,339,339,339,339,339,339,339,339,339,339,339,339,339,339,339,339,339,339,339,339,339,339,339,339,339,339,339,339,339,339,339,339,339,339,339,
339,339,339,339,339,339,339,339,339,339,339,339,339,339,339,339,339,339,339,339,339,339,339,339,339,339,339,339,339,339,339,339,339,339,339,339,339,339,339,339,
339,339,339,339,339,339,339,339,339,339,339,339,339,339,339,339,339,339,339,339,339,339,339,339,339,339,339,339,339,339,339,339,339,339,339,339,339,339,339,339,
339,339,339,339,339,339,339,339,339,339,339,339,339,339,339,339,339,339,339,339,339,339,339,339,339,339,339,339,339,339,339,339,339,339,339,339,339,339,339,339,
339,339,339,339,339,339,339,339,339,339,339,339,339,339,339,339,339,339,339,339,4519,4519,4519,4519,4519,4519,4519,4519,4519,4519,4519,4519,4519,4519,4519,4519,4519,4519,4519,339,
339,339,339,339,339,339,339,339,339,339,339,339,339,339,339,339,339,339,339,339,4519,4519,4519,4519,4519,4519,4519,4519,4519,4519,4519,4519,4519,4519,4519,4519,4519,4519,4519,339,
339,339,339,339,339,339,339,339,339,339,339,339,339,339,339,339,339,339,339,339,4519,4519,4519,4519,4519,4525,4519,4519,4519,4519,4525,4519,4519,4519,4519,4525,4519,4519,4519,339,
339,339,339,339,339,339,339,339,339,339,339,339,339,339,339,339,339,339,339,339,4519,4519,4519,4519,4519,4058,4519,4519,4519,4519,4058,4519,4519,4519,4519,4058,4519,4519,4519,339,
339,339,339,339,339,339,339,339,339,339,339,339,339,339,339,339,339,339,339,339,4519,4519,4519,4519,4519,4519,4519,4519,4519,4519,4519,4519,4519,4519,4519,4519,4519,4519,4519,339,
4519,292,292,292,292,292,292,292,292,292,292,292,292,292,292,292,292,292,292,4519,4519,4519,4519,4519,4519,4519,4519,4519,4519,4519,4519,4519,4519,4519,4519,4519,4519,4519,4519,339,
4519,292,292,292,4517,292,292,292,4521,292,292,292,4525,292,292,292,4525,292,292,4519,4519,4519,4519,4519,4519,4519,4519,4519,4519,4519,4519,4519,4519,4519,4519,4519,4519,4519,4519,339,
4519,292,292,292,4677,292,292,292,4681,292,292,292,4685,292,292,292,4685,292,292,4519,4519,4519,4519,4519,4519,4519,4519,4519,4519,4519,4519,4519,4519,4519,4519,4519,4519,4519,4519,339,
4519,292,292,292,292,292,292,292,292,292,292,292,292,292,292,292,292,292,292,4519,4519,4519,4519,4519,4519,4519,4519,4519,4519,4519,4519,4519,4519,4519,4519,4519,4519,4519,4519,339,
339,339,339,339,339,339,339,339,339,339,339,339,339,339,339,339,339,339,339,339,339,339,339,339,339,339,339,339,339,339,339,339,339,339,339,339,339,339,339,339
</data>
 </layer>
 <objectgroup id="3" name="CollisionBox">
  <object id="3" name="CollisionBox" type="CollisionBox" x="0" y="0" width="320" height="144"/>
  <object id="4" name="CollisionBox" type="CollisionBox" x="320" y="0" width="320" height="64"/>
  <object id="5" name="CollisionBox" type="CollisionBox" x="624" y="64" width="16" height="160"/>
  <object id="6" name="CollisionBox" type="CollisionBox" x="0" y="208" width="624" height="16"/>
 </objectgroup>
 <objectgroup id="2" name="CameraZone">
  <object id="2" name="CameraZone" type="CameraZone" x="0" y="0" width="640" height="224"/>
 </objectgroup>
 <objectgroup id="4" name="Objects">
  <object id="7" name="Mario" type="Mario" x="32" y="176">
   <point/>
  </object>
  <object id="8" name="BoomBoom" type="BoomBoom" x="528" y="160">
   <point/>
  </object>
 </objectgroup>
</map>
